icons/unity-panel/22x22/panel/indicator-notification-unread.svg

<?xml version="1.0" encoding="UTF-8" standalone="no"?>
<svg
   viewBox="0 0 22 22"
   version="1.1"
   id="svg10"
   sodipodi:docname="indicator-notification-unread.svg"
   inkscape:version="1.1.1 (3bf5ae0d25, 2021-09-20)"
   xmlns:inkscape="http://www.inkscape.org/namespaces/inkscape"
   xmlns:sodipodi="http://sodipodi.sourceforge.net/DTD/sodipodi-0.dtd"
   xmlns="http://www.w3.org/2000/svg"
   xmlns:svg="http://www.w3.org/2000/svg">
  <defs
     id="defs14" />
  <sodipodi:namedview
     id="namedview12"
     pagecolor="#ffffff"
     bordercolor="#666666"
     borderopacity="1.0"
     inkscape:pageshadow="2"
     inkscape:pageopacity="0.0"
     inkscape:pagecheckerboard="0"
     showgrid="true"
     inkscape:zoom="34.198256"
     inkscape:cx="11.067816"
     inkscape:cy="10.994713"
     inkscape:window-width="1852"
     inkscape:window-height="1043"
     inkscape:window-x="1434"
     inkscape:window-y="0"
     inkscape:window-maximized="1"
     inkscape:current-layer="svg10">
    <inkscape:grid
       type="xygrid"
       id="grid849" />
  </sodipodi:namedview>
  <path
     d="M 9.3872904,2 C 7.8431882,2.3580237 6.7191138,3.1750776 6.0200675,4.312153 5.3200212,5.4502283 5.030002,6.8723224 5,8.4764282 l 1.0000662,0.02 C 6.0290682,7.0003292 6.3040863,5.7562465 6.8711239,4.8361856 7.4381614,3.9151246 8.2822173,3.2820828 9.6133054,2.9720623 Z m 3.2262136,0 -0.226015,0.9720643 c 1.330088,0.3100205 2.175144,0.9430623 2.742181,1.8641234 0.567038,0.9200608 0.842056,2.1641436 0.871058,3.6602426 l 1.000066,-0.02 C 16.969792,6.8713223 16.680773,5.4492283 15.980727,4.312153 15.28068,3.1750776 14.158606,2.3580237 12.614504,2 Z m -1.613107,1.9901316 c -1.5261008,0 -2.5441682,0.7810517 -3.0722032,1.8381218 C 7.3991588,6.8853233 7.2531491,8.1814093 7.1271408,9.4394922 7.0011325,10.697575 6.8981256,11.925657 6.5941055,12.756712 6.4420955,13.171739 6.2470826,13.476759 6.0060666,13.674772 5.7660507,13.872786 5.4700311,13.990793 5,13.990793 v 1.000067 h 12.000794 v -1.000067 c -0.470031,0 -0.76505,-0.118007 -1.006066,-0.316021 -0.240016,-0.199013 -0.436029,-0.503033 -0.588039,-0.91806 C 15.102669,11.926657 14.999662,10.697575 14.873653,9.4394922 14.747645,8.1814093 14.601635,6.8853233 14.0736,5.8282534 13.542565,4.7701832 12.525498,3.9901316 11.000397,3.9901316 Z m 0,1.0000663 c 1.224081,0 1.769117,0.4670308 2.178144,1.2850851 0.409027,0.8180543 0.575038,2.0221343 0.699047,3.2642162 0.124008,1.2420818 0.209013,2.5161658 0.592039,3.5602348 0.126008,0.346023 0.369024,0.610041 0.588039,0.891059 H 6.9431286 C 7.1621431,13.708775 7.4041591,13.445757 7.5311676,13.100734 7.9141929,12.055665 7.9991985,10.780581 8.1232067,9.5394992 8.247215,8.2974173 8.4132259,7.0933373 8.8232531,6.275283 9.23028,5.4572287 9.7763162,4.9901978 11.000397,4.9901979 Z M 9.0002648,15.990926 a 2.0236342,2.0236342 0 0 0 4.0472682,0 z"
     style="font-variant-ligatures:normal;font-variant-position:normal;font-variant-caps:normal;font-variant-numeric:normal;font-variant-alternates:normal;font-variant-east-asian:normal;font-feature-settings:normal;font-variation-settings:normal;text-indent:0;text-decoration-line:none;text-decoration-style:solid;text-decoration-color:#000000;text-transform:none;text-orientation:mixed;white-space:normal;shape-padding:0;shape-margin:0;inline-size:0;isolation:auto;mix-blend-mode:normal;stroke-width:1.00007;fill:#ffffff"
     fill="#808080"
     id="path2-3" />
</svg>

<svg version="1.1" viewBox="0 0 22 22" xmlns="http://www.w3.org/2000/svg">
 <path d="m9.3873 2c-1.5441 0.35802-2.6682 1.1751-3.3672 2.3122-0.70005 1.1381-0.99007 2.5602-1.0201 4.1643l1.0001 0.02c0.029002-1.4961 0.30402-2.7402 0.87106-3.6602 0.56704-0.92106 1.4111-1.5541 2.7422-1.8641zm3.2262 0-0.22602 0.97206c1.3301 0.31002 2.1751 0.94306 2.7422 1.8641 0.56704 0.92006 0.84206 2.1641 0.87106 3.6602l1.0001-0.02c-0.031002-1.6051-0.32002-3.0272-1.0201-4.1643-0.70005-1.1371-1.8221-1.9541-3.3662-2.3122zm-1.6131 1.9901c-1.5261 0-2.5442 0.78105-3.0722 1.8381-0.52904 1.0571-0.67504 2.3532-0.80105 3.6112-0.12601 1.2581-0.22902 2.4862-0.53304 3.3172-0.15201 0.41503-0.34702 0.72005-0.58804 0.91806-0.24002 0.19801-0.53604 0.31602-1.0061 0.31602v1.0001h12.001v-1.0001c-0.47003 0-0.76505-0.11801-1.0061-0.31602-0.24002-0.19901-0.43603-0.50303-0.58804-0.91806-0.30402-0.83006-0.40703-2.0591-0.53304-3.3172-0.12601-1.2581-0.27202-2.5542-0.80005-3.6112-0.53104-1.0581-1.5481-1.8381-3.0732-1.8381zm0 1.0001c1.2241 0 1.7691 0.46703 2.1781 1.2851s0.57504 2.0221 0.69905 3.2642c0.12401 1.2421 0.20901 2.5162 0.59204 3.5602 0.12601 0.34602 0.36902 0.61004 0.58804 0.89106h-8.1145c0.21901-0.28202 0.46103-0.54504 0.58804-0.89006 0.38303-1.0451 0.46803-2.3202 0.59204-3.5612 0.12401-1.2421 0.29002-2.4462 0.70005-3.2642 0.40703-0.81805 0.95306-1.2851 2.1771-1.2851zm-2.0001 11.001a2.0236 2.0236 0 0 0 4.0473 0z" fill="#fff" stroke-width="1.0001" style="font-feature-settings:normal;font-variant-alternates:normal;font-variant-caps:normal;font-variant-east-asian:normal;font-variant-ligatures:normal;font-variant-numeric:normal;font-variant-position:normal;font-variation-settings:normal;inline-size:0;isolation:auto;mix-blend-mode:normal;shape-margin:0;shape-padding:0;text-decoration-color:#000000;text-decoration-line:none;text-decoration-style:solid;text-indent:0;text-orientation:mixed;text-transform:none;white-space:normal"/>
</svg>
